style/icons/notebook.svg

<svg width="50" height="62" viewBox="0 0 50 62" fill="none" xmlns="http://www.w3.org/2000/svg">
<mask id="mask0_153_5172" style="mask-type:luminance" maskUnits="userSpaceOnUse" x="5" y="0" width="45" height="62">
<path d="M5.70941 0H49.1926V62H5.70941V0Z" fill="white"/>
</mask>
<g mask="url(#mask0_153_5172)">
<mask id="mask1_153_5172" style="mask-type:luminance" maskUnits="userSpaceOnUse" x="5" y="0" width="45" height="62">
<path d="M9.8195 0H45.0825C47.3547 0 49.1926 1.84098 49.1926 4.11009V57.7248C49.1926 59.9969 47.3547 61.8349 45.0825 61.8349H9.8195C7.55039 61.8349 5.70941 59.9969 5.70941 57.7248V4.11009C5.70941 1.84098 7.55039 0 9.8195 0Z" fill="white"/>
</mask>
<g mask="url(#mask1_153_5172)">
<path d="M5.70941 0H49.1926V61.8318H5.70941V0Z" fill="#482F87"/>
</g>
</g>
<mask id="mask2_153_5172" style="mask-type:luminance" maskUnits="userSpaceOnUse" x="19" y="8" width="22" height="11">
<path d="M19.1835 8.46484H40.4862V18.2049H19.1835V8.46484Z" fill="white"/>
</mask>
<g mask="url(#mask2_153_5172)">
<mask id="mask3_153_5172" style="mask-type:luminance" maskUnits="userSpaceOnUse" x="19" y="8" width="22" height="11">
<path d="M21.5321 8.46484H38.1162C39.4128 8.46484 40.4648 9.51683 40.4648 10.8135V15.8563C40.4648 17.1529 39.4128 18.2049 38.1162 18.2049H21.5321C20.2355 18.2049 19.1835 17.1529 19.1835 15.8563V10.8135C19.1835 9.51683 20.2355 8.46484 21.5321 8.46484Z" fill="white"/>
</mask>
<g mask="url(#mask3_153_5172)">
<path d="M19.1835 8.46484H40.4495V18.2049H19.1835V8.46484Z" fill="#D7C1DC"/>
</g>
</g>
<mask id="mask4_153_5172" style="mask-type:luminance" maskUnits="userSpaceOnUse" x="19" y="8" width="22" height="11">
<path d="M19.1835 8.46484H40.4037V18.4893H19.1835V8.46484Z" fill="white"/>
</mask>
<g mask="url(#mask4_153_5172)">
<mask id="mask5_153_5172" style="mask-type:luminance" maskUnits="userSpaceOnUse" x="19" y="8" width="22" height="11">
<path d="M21.5321 8.46484H38.1101C39.4067 8.46484 40.4587 9.51683 40.4587 10.8135V15.8532C40.4587 17.1499 39.4067 18.2018 38.1101 18.2018H21.5321C20.2355 18.2018 19.1835 17.1499 19.1835 15.8532V10.8135C19.1835 9.51683 20.2355 8.46484 21.5321 8.46484Z" fill="white"/>
</mask>
<g mask="url(#mask5_153_5172)">
<path d="M21.5321 8.46484H38.1101C39.4067 8.46484 40.4587 9.51683 40.4587 10.8135V15.8532C40.4587 17.1499 39.4067 18.2018 38.1101 18.2018H21.5321C20.2355 18.2018 19.1835 17.1499 19.1835 15.8532V10.8135C19.1835 9.51683 20.2355 8.46484 21.5321 8.46484Z" stroke="#D7C1DC" stroke-width="3.52294"/>
</g>
</g>
<mask id="mask6_153_5172" style="mask-type:luminance" maskUnits="userSpaceOnUse" x="8" y="1" width="5" height="60">
<path d="M8.578 1.48315H12.9694V60.4281H8.578V1.48315Z" fill="white"/>
</mask>
<g mask="url(#mask6_153_5172)">
<path d="M12.9879 4.40971C12.9879 5.78891 12.0215 6.90206 10.8044 6.90206C9.59032 6.90206 8.62396 5.78891 8.62396 4.40971C8.62396 3.0305 9.61173 1.92041 10.8044 1.92041C12.0001 1.92041 12.9879 3.0305 12.9879 4.40971ZM12.9879 11.9235C12.9879 13.3027 12.0215 14.4128 10.8044 14.4128C9.59032 14.4128 8.62396 13.3027 8.62396 11.9235C8.62396 10.5443 9.59032 9.43417 10.8044 9.43417C12.0215 9.43417 12.9879 10.5443 12.9879 11.9235ZM12.9879 19.4372C12.9879 20.8134 12.0215 21.9265 10.8044 21.9265C9.59032 21.9265 8.62396 20.8134 8.62396 19.4372C8.62396 18.058 9.61173 16.9449 10.8044 16.9449C12.0001 16.9449 12.9879 18.058 12.9879 19.4372ZM12.9879 26.9479C12.9879 28.3271 12.0215 29.4403 10.8044 29.4403C9.59032 29.4403 8.62396 28.3271 8.62396 26.9479C8.62396 25.5687 9.59032 24.4586 10.8044 24.4586C12.0215 24.4586 12.9879 25.5687 12.9879 26.9479ZM12.9879 34.48C12.9879 35.8592 12.0215 36.9724 10.8044 36.9724C9.59032 36.9724 8.62396 35.8592 8.62396 34.48C8.62396 33.1039 9.61173 31.9693 10.8044 31.9693C12.0001 31.9693 12.9879 33.0825 12.9879 34.48ZM12.9879 41.9938C12.9879 43.373 12.0215 44.4831 10.8044 44.4831C9.59032 44.4831 8.62396 43.373 8.62396 41.9938C8.62396 40.6146 9.59032 39.5045 10.8044 39.5045C12.0215 39.5045 12.9879 40.6146 12.9879 41.9938ZM12.9879 49.5076C12.9879 50.8868 12.0215 51.9969 10.8044 51.9969C9.59032 51.9969 8.62396 50.8868 8.62396 49.5076C8.62396 48.1284 9.59032 47.0152 10.8044 47.0152C12.0215 47.0152 12.9879 48.1284 12.9879 49.5076ZM12.9879 57.0183C12.9879 58.3975 12.0215 59.5106 10.8044 59.5106C9.59032 59.5106 8.62396 58.3975 8.62396 57.0183C8.62396 55.6391 9.59032 54.529 10.8044 54.529C12.0215 54.529 12.9879 55.6391 12.9879 57.0183ZM12.9879 64.532C12.9879 65.9112 12.0215 67.0213 10.8044 67.0213C9.59032 67.0213 8.62396 65.9112 8.62396 64.532C8.62396 63.1528 9.61173 62.0213 10.8044 62.0213C12.0001 62.0213 12.9879 63.1528 12.9879 64.532ZM12.9879 72.0458C12.9879 73.4219 12.0215 74.5351 10.8044 74.5351C9.59032 74.5351 8.62396 73.4219 8.62396 72.0458C8.62396 70.6666 9.59032 69.5534 10.8044 69.5534C12.0215 69.5534 12.9879 70.6666 12.9879 72.0458ZM12.9879 79.5565C12.9879 80.9357 12.0215 82.0489 10.8044 82.0489C9.59032 82.0489 8.62396 80.9357 8.62396 79.5565C8.62396 78.1773 9.59032 77.0672 10.8044 77.0672C12.0215 77.0672 12.9879 78.1773 12.9879 79.5565ZM12.9879 87.0703C12.9879 88.4495 12.0215 89.5596 10.8044 89.5596C9.59032 89.5596 8.62396 88.4495 8.62396 87.0703C8.62396 85.6911 9.59032 84.5779 10.8044 84.5779C12.0215 84.5779 12.9879 85.6911 12.9879 87.0703ZM12.9879 94.581C12.9879 95.9602 12.0215 97.0733 10.8044 97.0733C9.59032 97.0733 8.62396 95.9602 8.62396 94.581C8.62396 93.2018 9.59032 92.0917 10.8044 92.0917C12.0215 92.0917 12.9879 93.2018 12.9879 94.581ZM12.9879 102.095C12.9879 103.474 12.0215 104.584 10.8044 104.584C9.59032 104.584 8.62396 103.474 8.62396 102.095C8.62396 100.716 9.59032 99.6054 10.8044 99.6054C12.0215 99.6054 12.9879 100.716 12.9879 102.095Z" fill="white"/>
</g>
<mask id="mask7_153_5172" style="mask-type:luminance" maskUnits="userSpaceOnUse" x="0" y="3" width="13" height="58">
<path d="M0 3.04883H12.4924V60.428H0V3.04883Z" fill="white"/>
</mask>
<g mask="url(#mask7_153_5172)">
<mask id="mask8_153_5172" style="mask-type:luminance" maskUnits="userSpaceOnUse" x="0" y="3" width="12" height="101">
<path d="M10.5779 5.76751H1.35775C0.617692 5.76751 0.0213623 5.17118 0.0213623 4.43112C0.0213623 3.69106 0.617692 3.09473 1.35775 3.09473H10.5596C11.2997 3.09473 11.896 3.69106 11.896 4.43112C11.9174 5.15283 11.2997 5.76751 10.5779 5.76751ZM10.5779 13.2813H1.35775C0.617692 13.2813 0.0213623 12.6849 0.0213623 11.9449C0.0213623 11.2018 0.617692 10.6054 1.35775 10.6054H10.5596C11.2997 10.6054 11.896 11.2018 11.896 11.9449C11.9174 12.6635 11.2997 13.2813 10.5779 13.2813ZM10.5779 20.795H1.35775C0.617692 20.795 0.0213623 20.1987 0.0213623 19.4556C0.0213623 18.7155 0.617692 18.1192 1.35775 18.1192H10.5596C11.2997 18.1192 11.896 18.7155 11.896 19.4556C11.9174 20.1773 11.2997 20.795 10.5779 20.795ZM10.5779 28.3057H1.35775C0.617692 28.3057 0.0213623 27.7094 0.0213623 26.9693C0.0213623 26.2293 0.617692 25.6299 1.35775 25.6299H10.5596C11.2997 25.6299 11.896 26.2293 11.896 26.9693C11.9174 27.688 11.2997 28.3057 10.5779 28.3057ZM10.5779 35.8195H1.35775C0.617692 35.8195 0.0213623 35.2232 0.0213623 34.48C0.0213623 33.74 0.617692 33.1437 1.35775 33.1437H10.5596C11.2997 33.1437 11.896 33.74 11.896 34.48C11.9174 35.2018 11.2997 35.8195 10.5779 35.8195ZM10.5779 43.3333H1.35775C0.617692 43.3333 0.0213623 42.7339 0.0213623 41.9938C0.0213623 41.2537 0.617692 40.6574 1.35775 40.6574H10.5596C11.2997 40.6574 11.896 41.2537 11.896 41.9938C11.9174 42.7155 11.2997 43.3333 10.5779 43.3333ZM10.5779 50.844H1.35775C0.617692 50.844 0.0213623 50.2476 0.0213623 49.5076C0.0213623 48.7645 0.617692 48.1681 1.35775 48.1681H10.5596C11.2997 48.1681 11.896 48.7645 11.896 49.5076C11.9174 50.2262 11.2997 50.844 10.5779 50.844ZM10.5779 58.3577H1.35775C0.617692 58.3577 0.0213623 57.7614 0.0213623 57.0183C0.0213623 56.2782 0.617692 55.6819 1.35775 55.6819H10.5596C11.2997 55.6819 11.896 56.2782 11.896 57.0183C11.9174 57.7614 11.2997 58.3577 10.5779 58.3577ZM10.5779 65.8684H1.35775C0.617692 65.8684 0.0213623 65.2721 0.0213623 64.532C0.0213623 63.792 0.617692 63.1926 1.35775 63.1926H10.5596C11.2997 63.1926 11.896 63.792 11.896 64.532C11.9174 65.2721 11.2997 65.8684 10.5779 65.8684ZM10.5779 73.3822H1.35775C0.617692 73.3822 0.0213623 72.7859 0.0213623 72.0458C0.0213623 71.3027 0.617692 70.7064 1.35775 70.7064H10.5596C11.2997 70.7064 11.896 71.3027 11.896 72.0458C11.9174 72.7859 11.2997 73.3822 10.5779 73.3822ZM10.5779 80.896H1.35775C0.617692 80.896 0.0213623 80.2966 0.0213623 79.5565C0.0213623 78.8164 0.617692 78.2201 1.35775 78.2201H10.5596C11.2997 78.2201 11.896 78.8164 11.896 79.5565C11.9174 80.2966 11.2997 80.896 10.5779 80.896ZM10.5779 88.4067H1.35775C0.617692 88.4067 0.0213623 87.8103 0.0213623 87.0703C0.0213623 86.3271 0.617692 85.7308 1.35775 85.7308H10.5596C11.2997 85.7308 11.896 86.3271 11.896 87.0703C11.9174 87.8103 11.2997 88.4067 10.5779 88.4067ZM10.5779 95.9204H1.35775C0.617692 95.9204 0.0213623 95.3241 0.0213623 94.581C0.0213623 93.8409 0.617692 93.2446 1.35775 93.2446H10.5596C11.2997 93.2446 11.896 93.8409 11.896 94.581C11.9174 95.3241 11.2997 95.9204 10.5779 95.9204ZM10.5779 103.431H1.35775C0.617692 103.431 0.0213623 102.835 0.0213623 102.095C0.0213623 101.355 0.617692 100.755 1.35775 100.755H10.5596C11.2997 100.755 11.896 101.355 11.896 102.095C11.9174 102.835 11.2997 103.431 10.5779 103.431Z" fill="white"/>
</mask>
<g mask="url(#mask8_153_5172)">
<path d="M0.0213623 3.09473V60.4281H11.9174V3.09473H0.0213623Z" fill="#F47950"/>
</g>
</g>
<mask id="mask9_153_5172" style="mask-type:luminance" maskUnits="userSpaceOnUse" x="0" y="2" width="13" height="59">
<path d="M0 2.26611H12.9694V60.4282H0V2.26611Z" fill="white"/>
</mask>
<g mask="url(#mask9_153_5172)">
<path d="M10.5779 5.76763H1.35775C0.617692 5.76763 0.0213623 5.1713 0.0213623 4.43124C0.0213623 3.69118 0.617692 3.09485 1.35775 3.09485H10.5596C11.2997 3.09485 11.896 3.69118 11.896 4.43124C11.9174 5.15295 11.2997 5.76763 10.5779 5.76763ZM10.5779 13.2814H1.35775C0.617692 13.2814 0.0213623 12.6851 0.0213623 11.945C0.0213623 11.2019 0.617692 10.6056 1.35775 10.6056H10.5596C11.2997 10.6056 11.896 11.2019 11.896 11.945C11.9174 12.6637 11.2997 13.2814 10.5779 13.2814ZM10.5779 20.7952H1.35775C0.617692 20.7952 0.0213623 20.1988 0.0213623 19.4557C0.0213623 18.7157 0.617692 18.1193 1.35775 18.1193H10.5596C11.2997 18.1193 11.896 18.7157 11.896 19.4557C11.9174 20.1774 11.2997 20.7952 10.5779 20.7952ZM10.5779 28.3059H1.35775C0.617692 28.3059 0.0213623 27.7095 0.0213623 26.9695C0.0213623 26.2294 0.617692 25.63 1.35775 25.63H10.5596C11.2997 25.63 11.896 26.2294 11.896 26.9695C11.9174 27.6881 11.2997 28.3059 10.5779 28.3059ZM10.5779 35.8196H1.35775C0.617692 35.8196 0.0213623 35.2233 0.0213623 34.4802C0.0213623 33.7401 0.617692 33.1438 1.35775 33.1438H10.5596C11.2997 33.1438 11.896 33.7401 11.896 34.4802C11.9174 35.2019 11.2997 35.8196 10.5779 35.8196ZM10.5779 43.3334H1.35775C0.617692 43.3334 0.0213623 42.734 0.0213623 41.9939C0.0213623 41.2539 0.617692 40.6576 1.35775 40.6576H10.5596C11.2997 40.6576 11.896 41.2539 11.896 41.9939C11.9174 42.7157 11.2997 43.3334 10.5779 43.3334ZM10.5779 50.8441H1.35775C0.617692 50.8441 0.0213623 50.2478 0.0213623 49.5077C0.0213623 48.7646 0.617692 48.1683 1.35775 48.1683H10.5596C11.2997 48.1683 11.896 48.7646 11.896 49.5077C11.9174 50.2264 11.2997 50.8441 10.5779 50.8441ZM10.5779 58.3579H1.35775C0.617692 58.3579 0.0213623 57.7615 0.0213623 57.0184C0.0213623 56.2784 0.617692 55.682 1.35775 55.682H10.5596C11.2997 55.682 11.896 56.2784 11.896 57.0184C11.9174 57.7615 11.2997 58.3579 10.5779 58.3579ZM10.5779 65.8686H1.35775C0.617692 65.8686 0.0213623 65.2722 0.0213623 64.5322C0.0213623 63.7921 0.617692 63.1927 1.35775 63.1927H10.5596C11.2997 63.1927 11.896 63.7921 11.896 64.5322C11.9174 65.2722 11.2997 65.8686 10.5779 65.8686ZM10.5779 73.3823H1.35775C0.617692 73.3823 0.0213623 72.786 0.0213623 72.046C0.0213623 71.3028 0.617692 70.7065 1.35775 70.7065H10.5596C11.2997 70.7065 11.896 71.3028 11.896 72.046C11.9174 72.786 11.2997 73.3823 10.5779 73.3823ZM10.5779 80.8961H1.35775C0.617692 80.8961 0.0213623 80.2967 0.0213623 79.5566C0.0213623 78.8166 0.617692 78.2203 1.35775 78.2203H10.5596C11.2997 78.2203 11.896 78.8166 11.896 79.5566C11.9174 80.2967 11.2997 80.8961 10.5779 80.8961ZM10.5779 88.4068H1.35775C0.617692 88.4068 0.0213623 87.8105 0.0213623 87.0704C0.0213623 86.3273 0.617692 85.731 1.35775 85.731H10.5596C11.2997 85.731 11.896 86.3273 11.896 87.0704C11.9174 87.8105 11.2997 88.4068 10.5779 88.4068ZM10.5779 95.9206H1.35775C0.617692 95.9206 0.0213623 95.3243 0.0213623 94.5811C0.0213623 93.8411 0.617692 93.2447 1.35775 93.2447H10.5596C11.2997 93.2447 11.896 93.8411 11.896 94.5811C11.9174 95.3243 11.2997 95.9206 10.5779 95.9206ZM10.5779 103.431H1.35775C0.617692 103.431 0.0213623 102.835 0.0213623 102.095C0.0213623 101.355 0.617692 100.755 1.35775 100.755H10.5596C11.2997 100.755 11.896 101.355 11.896 102.095C11.9174 102.835 11.2997 103.431 10.5779 103.431Z" stroke="#A7A9AC" stroke-width="0.0514564" stroke-miterlimit="10"/>
</g>
</svg>

<svg xmlns="http://www.w3.org/2000/svg" width="50" height="62" fill="none"><mask id="a" width="45" height="62" x="5" y="0" maskUnits="userSpaceOnUse" style="mask-type:luminance"><path fill="#fff" d="M5.71 0h43.483v62H5.709z"/></mask><g mask="url(#a)"><mask id="b" width="45" height="62" x="5" y="0" maskUnits="userSpaceOnUse" style="mask-type:luminance"><path fill="#fff" d="M9.82 0h35.263a4.11 4.11 0 0 1 4.11 4.11v53.615a4.107 4.107 0 0 1-4.11 4.11H9.82a4.11 4.11 0 0 1-4.11-4.11V4.11A4.11 4.11 0 0 1 9.82 0"/></mask><g mask="url(#b)"><path fill="#482F87" d="M5.71 0h43.483v61.832H5.709z"/></g></g><mask id="c" width="22" height="11" x="19" y="8" maskUnits="userSpaceOnUse" style="mask-type:luminance"><path fill="#fff" d="M19.184 8.465h21.302v9.74H19.184z"/></mask><g mask="url(#c)"><mask id="d" width="22" height="11" x="19" y="8" maskUnits="userSpaceOnUse" style="mask-type:luminance"><path fill="#fff" d="M21.532 8.465h16.584a2.35 2.35 0 0 1 2.349 2.348v5.043a2.35 2.35 0 0 1-2.349 2.349H21.532a2.35 2.35 0 0 1-2.349-2.349v-5.042a2.35 2.35 0 0 1 2.35-2.35Z"/></mask><g mask="url(#d)"><path fill="#D7C1DC" d="M19.184 8.465H40.45v9.74H19.183v-9.74Z"/></g></g><mask id="e" width="22" height="11" x="19" y="8" maskUnits="userSpaceOnUse" style="mask-type:luminance"><path fill="#fff" d="M19.184 8.465h21.22v10.024h-21.22z"/></mask><g mask="url(#e)"><mask id="f" width="22" height="11" x="19" y="8" maskUnits="userSpaceOnUse" style="mask-type:luminance"><path fill="#fff" d="M21.532 8.465H38.11a2.35 2.35 0 0 1 2.349 2.348v5.04a2.35 2.35 0 0 1-2.349 2.349H21.532a2.35 2.35 0 0 1-2.349-2.349v-5.04a2.35 2.35 0 0 1 2.35-2.348Z"/></mask><g mask="url(#f)"><path stroke="#D7C1DC" stroke-width="3.523" d="M21.532 8.465H38.11a2.35 2.35 0 0 1 2.349 2.348v5.04a2.35 2.35 0 0 1-2.349 2.349H21.532a2.35 2.35 0 0 1-2.349-2.349v-5.04a2.35 2.35 0 0 1 2.35-2.348Z"/></g></g><mask id="g" width="5" height="60" x="8" y="1" maskUnits="userSpaceOnUse" style="mask-type:luminance"><path fill="#fff" d="M8.578 1.483h4.391v58.945H8.578z"/></mask><g mask="url(#g)"><path fill="#fff" d="M12.988 4.41c0 1.379-.966 2.492-2.184 2.492-1.214 0-2.18-1.113-2.18-2.492s.988-2.49 2.18-2.49c1.196 0 2.184 1.11 2.184 2.49m0 7.514c0 1.379-.966 2.489-2.184 2.489-1.214 0-2.18-1.11-2.18-2.49 0-1.379.966-2.489 2.18-2.489 1.217 0 2.184 1.11 2.184 2.49m0 7.513c0 1.376-.966 2.49-2.184 2.49-1.214 0-2.18-1.114-2.18-2.49 0-1.379.988-2.492 2.18-2.492 1.196 0 2.184 1.113 2.184 2.492m0 7.51c0 1.38-.966 2.493-2.184 2.493-1.214 0-2.18-1.113-2.18-2.492s.966-2.49 2.18-2.49c1.217 0 2.184 1.11 2.184 2.49Zm0 7.533c0 1.38-.966 2.492-2.184 2.492-1.214 0-2.18-1.113-2.18-2.492 0-1.376.988-2.51 2.18-2.51 1.196 0 2.184 1.113 2.184 2.51m0 7.514c0 1.379-.966 2.49-2.184 2.49-1.214 0-2.18-1.111-2.18-2.49s.966-2.49 2.18-2.49c1.217 0 2.184 1.11 2.184 2.49m0 7.514c0 1.379-.966 2.489-2.184 2.489-1.214 0-2.18-1.11-2.18-2.49 0-1.379.966-2.492 2.18-2.492 1.217 0 2.184 1.113 2.184 2.493m0 7.51c0 1.38-.966 2.493-2.184 2.493-1.214 0-2.18-1.114-2.18-2.493s.966-2.489 2.18-2.489c1.217 0 2.184 1.11 2.184 2.49Zm0 7.514c0 1.38-.966 2.49-2.184 2.49-1.214 0-2.18-1.11-2.18-2.49s.988-2.51 2.18-2.51c1.196 0 2.184 1.13 2.184 2.51m0 7.514c0 1.376-.966 2.49-2.184 2.49-1.214 0-2.18-1.114-2.18-2.49 0-1.38.966-2.493 2.18-2.493 1.217 0 2.184 1.114 2.184 2.493m0 7.51c0 1.38-.966 2.493-2.184 2.493-1.214 0-2.18-1.113-2.18-2.493s.966-2.489 2.18-2.489c1.217 0 2.184 1.11 2.184 2.49Zm0 7.514c0 1.38-.966 2.49-2.184 2.49-1.214 0-2.18-1.11-2.18-2.49 0-1.379.966-2.492 2.18-2.492 1.217 0 2.184 1.113 2.184 2.492m0 7.511c0 1.38-.966 2.492-2.184 2.492-1.214 0-2.18-1.113-2.18-2.492s.966-2.49 2.18-2.49c1.217 0 2.184 1.11 2.184 2.49m0 7.514c0 1.379-.966 2.489-2.184 2.489-1.214 0-2.18-1.11-2.18-2.489s.966-2.49 2.18-2.49c1.217 0 2.184 1.111 2.184 2.49"/></g><mask id="h" width="13" height="58" x="0" y="3" maskUnits="userSpaceOnUse" style="mask-type:luminance"><path fill="#fff" d="M0 3.049h12.492v57.379H0z"/></mask><g mask="url(#h)"><mask id="i" width="12" height="101" x="0" y="3" maskUnits="userSpaceOnUse" style="mask-type:luminance"><path fill="#fff" d="M10.578 5.768h-9.22a1.337 1.337 0 1 1-.001-2.674h9.202c.74 0 1.336.596 1.336 1.336.021.722-.596 1.337-1.318 1.337Zm0 7.513h-9.22c-.74 0-1.337-.596-1.337-1.336 0-.743.597-1.34 1.337-1.34h9.202c.74 0 1.336.597 1.336 1.34.021.719-.596 1.336-1.318 1.336m0 7.514h-9.22c-.74 0-1.337-.596-1.337-1.34 0-.74.597-1.336 1.337-1.336h9.202c.74 0 1.336.596 1.336 1.337.021.721-.596 1.339-1.318 1.339m0 7.51h-9.22a1.338 1.338 0 0 1 0-2.676h9.202c.74 0 1.336.6 1.336 1.34.021.719-.596 1.337-1.318 1.337Zm0 7.514h-9.22c-.74 0-1.337-.596-1.337-1.339 0-.74.597-1.336 1.337-1.336h9.202c.74 0 1.336.596 1.336 1.336.021.722-.596 1.34-1.318 1.34Zm0 7.514h-9.22a1.338 1.338 0 0 1 0-2.676h9.202c.74 0 1.336.597 1.336 1.337.021.721-.596 1.34-1.318 1.34Zm0 7.511h-9.22c-.74 0-1.337-.596-1.337-1.336 0-.744.597-1.34 1.337-1.34h9.202c.74 0 1.336.596 1.336 1.34.021.718-.596 1.336-1.318 1.336m0 7.514h-9.22c-.74 0-1.337-.597-1.337-1.34 0-.74.597-1.336 1.337-1.336h9.202c.74 0 1.336.596 1.336 1.336.021.743-.596 1.34-1.318 1.34m0 7.51h-9.22a1.338 1.338 0 0 1 0-2.676h9.202c.74 0 1.336.6 1.336 1.34.021.74-.596 1.336-1.318 1.336m0 7.514h-9.22c-.74 0-1.337-.596-1.337-1.336 0-.743.597-1.34 1.337-1.34h9.202c.74 0 1.336.597 1.336 1.34.021.74-.596 1.336-1.318 1.336m0 7.514h-9.22a1.338 1.338 0 0 1 0-2.676h9.202c.74 0 1.336.596 1.336 1.337.021.74-.596 1.339-1.318 1.339m0 7.51h-9.22c-.74 0-1.337-.596-1.337-1.336 0-.743.597-1.34 1.337-1.34h9.202c.74 0 1.336.597 1.336 1.34.021.74-.596 1.337-1.318 1.337Zm0 7.514h-9.22c-.74 0-1.337-.596-1.337-1.339 0-.74.597-1.336 1.337-1.336h9.202c.74 0 1.336.596 1.336 1.336.021.743-.596 1.34-1.318 1.34Zm0 7.511h-9.22a1.338 1.338 0 0 1 0-2.676h9.202c.74 0 1.336.6 1.336 1.34.021.74-.596 1.336-1.318 1.336"/></mask><g mask="url(#i)"><path fill="#F47950" d="M.021 3.095v57.333h11.896V3.095z"/></g></g><mask id="j" width="13" height="59" x="0" y="2" maskUnits="userSpaceOnUse" style="mask-type:luminance"><path fill="#fff" d="M0 2.266h12.97v58.162H0z"/></mask><g mask="url(#j)"><path stroke="#A7A9AC" stroke-miterlimit="10" stroke-width=".051" d="M10.578 5.768h-9.22a1.337 1.337 0 1 1-.001-2.674h9.202c.74 0 1.336.596 1.336 1.336.021.722-.596 1.337-1.318 1.337Zm0 7.513h-9.22c-.74 0-1.337-.596-1.337-1.336 0-.743.597-1.34 1.337-1.34h9.202c.74 0 1.336.597 1.336 1.34.021.719-.596 1.336-1.318 1.336Zm0 7.514h-9.22c-.74 0-1.337-.596-1.337-1.34 0-.74.597-1.336 1.337-1.336h9.202c.74 0 1.336.597 1.336 1.337.021.721-.596 1.34-1.318 1.34Zm0 7.51h-9.22a1.336 1.336 0 1 1 0-2.676h9.202c.74.001 1.336.6 1.336 1.34.021.72-.596 1.337-1.318 1.337Zm0 7.515h-9.22c-.74 0-1.337-.597-1.337-1.34 0-.74.597-1.336 1.337-1.336h9.202c.74 0 1.336.596 1.336 1.336.021.722-.596 1.34-1.318 1.34Zm0 7.513h-9.22a1.337 1.337 0 1 1 0-2.675h9.202c.74 0 1.336.596 1.336 1.336.021.722-.596 1.34-1.318 1.34Zm0 7.511h-9.22c-.74 0-1.337-.596-1.337-1.336 0-.743.597-1.34 1.337-1.34h9.202c.74 0 1.336.597 1.336 1.34.021.718-.596 1.336-1.318 1.336Zm0 7.514h-9.22c-.74 0-1.337-.596-1.337-1.34 0-.74.597-1.336 1.337-1.336h9.202c.74 0 1.336.596 1.336 1.336.021.743-.596 1.34-1.318 1.34Zm0 7.51h-9.22a1.338 1.338 0 0 1 0-2.676h9.202c.74 0 1.336.6 1.336 1.34.021.74-.596 1.337-1.318 1.337Zm0 7.514h-9.22c-.74 0-1.337-.596-1.337-1.336 0-.743.597-1.34 1.337-1.34h9.202c.74 0 1.336.597 1.336 1.34.021.74-.596 1.336-1.318 1.336Zm0 7.514h-9.22a1.338 1.338 0 0 1 0-2.676h9.202c.74 0 1.336.597 1.336 1.337.021.74-.596 1.34-1.318 1.34Zm0 7.51h-9.22c-.74 0-1.337-.596-1.337-1.336 0-.743.597-1.339 1.337-1.339h9.202c.74 0 1.336.596 1.336 1.34.021.74-.596 1.336-1.318 1.336Zm0 7.515h-9.22c-.74 0-1.337-.597-1.337-1.34 0-.74.597-1.336 1.337-1.336h9.202c.74 0 1.336.596 1.336 1.336.021.743-.596 1.34-1.318 1.34Zm0 7.51h-9.22a1.338 1.338 0 0 1 0-2.676h9.202c.74 0 1.336.6 1.336 1.34.021.74-.596 1.336-1.318 1.336Z"/></g></svg>
